icons/repeat-fill.svg

<svg xmlns="http://www.w3.org/2000/svg" width="24" height="24" fill="none"><g clip-path="url(#a)"><g><path fill="#121212" d="M6 4H21C21.2652 4 21.5196 4.10536 21.7071 4.29289C21.8946 4.48043 22 4.73478 22 5V12H20V6H6V9L1 5L6 1V4ZM18 20H3C2.73478 20 2.48043 19.8946 2.29289 19.7071C2.10536 19.5196 2 19.2652 2 19V12H4V18H18V15L23 19L18 23V20Z"/></g></g><defs><clipPath id="a"><rect width="24" height="24" fill="white"/></clipPath></defs></svg>

<svg width="24" height="24" fill="none" xmlns="http://www.w3.org/2000/svg"><g clip-path="url(#a)"><path d="M6 4h15a1 1 0 0 1 1 1v7h-2V6H6v3L1 5l5-4v3Zm12 16H3a1 1 0 0 1-1-1v-7h2v6h14v-3l5 4-5 4v-3Z" /></g><defs><clipPath id="a"><path fill="#fff" d="M0 0h24v24H0z"/></clipPath></defs></svg>
